X:108
T:Huntsman Hornpipe
M:2/4
L:1/16
K:D
AG|F2d2 d2cd|ecAc d2de|fdfd gfgf|afdf ecAG|F2d2 d2cd|
ecAc d2de|fdgf edcB|A2A2A2::fg|agfe dcBA|B2G2 G2ga|
bagf gfed|c2A2 A2fg|afaf bge2|gfge afd2|agbg fedc|d2d2d2:|
